packages/heroicons/src/interstate/outline/arrow-top-right-on-square.svg

<svg width="16" height="17" viewBox="0 0 16 17" fill="none" xmlns="http://www.w3.org/2000/svg">
<g clip-path="url(#clip0_1243_4866)">
<path d="M9.16071 4.21826H2.7775C1.81604 4.21826 1.03662 4.99768 1.03662 5.95914V14.0832C1.03662 15.0447 1.81604 15.8241 2.7775 15.8241H10.9016C11.863 15.8241 12.6425 15.0447 12.6425 14.0832V7.70001M4.51837 12.3423L14.9636 1.89709M14.9636 1.89709L10.9016 1.89709M14.9636 1.89709V5.95914" stroke="black" stroke-width="1.5" stroke-linecap="round" stroke-linejoin="round"/>
</g>
<defs>
<clipPath id="clip0_1243_4866">
<rect width="16" height="16" fill="white" transform="translate(0 0.860596)"/>
</clipPath>
</defs>
</svg>

<svg viewBox="0 0 16 17">
  <g clip-path="url(#a)">
    <path stroke="currentColor" stroke-linecap="round" stroke-linejoin="round" stroke-width="1.5" d="M9.16 4.214H2.778c-.961 0-1.74.78-1.74 1.74v8.125c0 .961.779 1.74 1.74 1.74h8.125c.96 0 1.74-.779 1.74-1.74V7.695m-8.124 4.643L14.963 1.893m0 0h-4.061m4.062 0v4.062"/>
  </g>
  <defs>
    <clipPath id="a">
      <path d="M0 0h16v16H0z" transform="translate(0 .856)"/>
    </clipPath>
  </defs>
</svg>
